assets/icons/qvision/euro_symbol.svg

<svg xmlns="http://www.w3.org/2000/svg" height="24" viewBox="0 0 24 24" width="24"><path d="M0 0h24v24H0z" fill="none"/><path d="M15 18.5c-2.51 0-4.68-1.42-5.76-3.5H15v-2H8.58c-.05-.33-.08-.66-.08-1s.03-.67.08-1H15V9H9.24C10.32 6.92 12.5 5.5 15 5.5c1.61 0 3.09.59 4.23 1.57L21 5.3C19.41 3.87 17.3 3 15 3c-3.92 0-7.24 2.51-8.48 6H3v2h3.06c-.04.33-.06.66-.06 1 0 .34.02.67.06 1H3v2h3.52c1.24 3.49 4.56 6 8.48 6 2.31 0 4.41-.87 6-2.3l-1.78-1.77c-1.13.98-2.6 1.57-4.22 1.57z"/></svg>

<svg width="24" height="24" viewBox="0 0 24 24" fill="none" xmlns="http://www.w3.org/2000/svg">
<g clip-path="url(#clip0_147_4136)">
<path d="M15 18.5C12.49 18.5 10.32 17.08 9.24 15H15V13H8.58C8.53 12.67 8.5 12.34 8.5 12C8.5 11.66 8.53 11.33 8.58 11H15V9H9.24C10.32 6.92 12.5 5.5 15 5.5C16.61 5.5 18.09 6.09 19.23 7.07L21 5.3C19.41 3.87 17.3 3 15 3C11.08 3 7.76 5.51 6.52 9H3V11H6.06C6.02 11.33 6 11.66 6 12C6 12.34 6.02 12.67 6.06 13H3V15H6.52C7.76 18.49 11.08 21 15 21C17.31 21 19.41 20.13 21 18.7L19.22 16.93C18.09 17.91 16.62 18.5 15 18.5Z" fill="#323232"/>
</g>
<defs>
<clipPath id="clip0_147_4136">
<rect width="24" height="24" fill="white"/>
</clipPath>
</defs>
</svg>
